X:169
T:Bourree Piccadilly. (p)1665.PLFD.169
M:4/4
L:1/4
Q:1/2=120
S:Playford, Dancing Master,2nd Supp. to 3rd Ed.,1665
O:England
H:166
Z:Chris Partington
K:G
B/c/|dBc>d|eBc>B|A>GAF|G3e/f/|g2f2|eagf|
e>de^c|d3e/f/|gdeB|c>BA>b|a/b/gg>f|g3|]
